X: 37502
T: Sligo Maid, The
R: reel
M: 4/4
K: Adorian
"Am" A2 BA Bdeg|{/a}gedB AE{/F}ED|"G" G2 BG DGBG|DEGA Bd{/e}dB|
"Am" A2 BA Bdeg|{/a}gedB AE{/F}ED|"G" B2 BG AGGE|DEGA "Am" BA A2:|
|:"Am" ea{/b}ag gaga|{/b}ag{/a}gf gedg|"G" eg{/a}gf gfge|dg !turn!g2 bgag|
"Am" ea{/b}ag gaga|{/b}ag{/a}gf gedg|"G" eg{/a}gf edBc|dBgB "Am" BA A2:|

